img/servicios-edicion-icon.svg

<svg width="40" height="55" viewBox="0 0 40 55" fill="none" xmlns="http://www.w3.org/2000/svg">
<path d="M40 0H30V3.66667H10V0H0V55H10V51.3333H30V55H40V0ZM6.66667 3.66667V7.33333H3.33333V3.66667H6.66667ZM36.6667 3.66667V7.33333H33.3333V3.66667H36.6667ZM30 7.33333V25.6667H10V7.33333H30ZM6.66667 11V14.6667H3.33333V11H6.66667ZM36.6667 11V14.6667H33.3333V11H36.6667ZM6.66667 18.3333V22H3.33333V18.3333H6.66667ZM36.6667 18.3333V22H33.3333V18.3333H36.6667ZM6.66667 25.6667V29.3333H3.33333V25.6667H6.66667ZM36.6667 25.6667V29.3333H33.3333V25.6667H36.6667ZM30 29.3333V47.6667H10V29.3333H30ZM6.66667 33V36.6667H3.33333V33H6.66667ZM36.6667 33V36.6667H33.3333V33H36.6667ZM6.66667 40.3333V44H3.33333V40.3333H6.66667ZM36.6667 40.3333V44H33.3333V40.3333H36.6667ZM6.66667 47.6667V51.3333H3.33333V47.6667H6.66667ZM36.6667 47.6667V51.3333H33.3333V47.6667H36.6667Z" fill="#C3B214"/>
</svg>

<svg width="40" height="55" fill="none" xmlns="http://www.w3.org/2000/svg"><path d="M40 0H30v3.667H10V0H0v55h10v-3.667h20V55h10V0zM6.667 3.667v3.666H3.333V3.667h3.334zm30 0v3.666h-3.334V3.667h3.334zM30 7.333v18.334H10V7.333h20zM6.667 11v3.667H3.333V11h3.334zm30 0v3.667h-3.334V11h3.334zm-30 7.333V22H3.333v-3.667h3.334zm30 0V22h-3.334v-3.667h3.334zm-30 7.334v3.666H3.333v-3.666h3.334zm30 0v3.666h-3.334v-3.666h3.334zM30 29.333v18.334H10V29.333h20zM6.667 33v3.667H3.333V33h3.334zm30 0v3.667h-3.334V33h3.334zm-30 7.333V44H3.333v-3.667h3.334zm30 0V44h-3.334v-3.667h3.334zm-30 7.334v3.666H3.333v-3.666h3.334zm30 0v3.666h-3.334v-3.666h3.334z" fill="#C3B214"/></svg>
